source/images/icons/icon-editorial/curseur.svg

<?xml version="1.0" encoding="UTF-8"?>
<svg width="80px" height="80px" viewBox="0 0 80 80" version="1.1" xmlns="http://www.w3.org/2000/svg" xmlns:xlink="http://www.w3.org/1999/xlink">
    <!-- Generator: Sketch 55.2 (78181) - https://sketchapp.com -->
    <title>Illustrative Icons/Curseur</title>
    <desc>Created with Sketch.</desc>
    <g id="Illustrative-Icons/Curseur" stroke="none" stroke-width="1" fill="none" fill-rule="evenodd">
        <path d="M70.1741673,35.3108339 C70.094527,34.6926393 69.6765967,34.170548 69.090834,33.9575006 L17.2375006,15.1008339 C16.6286784,14.8789092 15.9464139,15.0299915 15.4882027,15.4882027 C15.0299915,15.9464139 14.8789092,16.6286784 15.1008339,17.2375006 L33.9575006,69.090834 C34.170548,69.6765967 34.6926393,70.094527 35.3108339,70.1741673 C35.381592,70.1831133 35.4528459,70.1875014 35.5241673,70.1875014 C36.0710271,70.1875014 36.5830041,69.9188707 36.8941673,69.4691673 L46.3641673,55.790834 L59.0941673,68.520834 C59.7481321,69.1524543 60.7876419,69.1434213 61.4305316,68.5005316 C62.0734213,67.8576419 62.0824543,66.8181321 61.450834,66.1641673 L47.3091673,52.0225006 C46.9596958,51.6732454 46.4732789,51.4970449 45.9812047,51.5414571 C45.4891304,51.5858693 45.0421231,51.8463161 44.7608339,52.2525006 L35.9891673,64.9191673 L19.4541672,19.4541672 L64.9225006,35.9875006 L52.255834,44.7591673 C51.8496494,45.0404565 51.5892026,45.4874638 51.5447904,45.979538 C51.5003782,46.4716122 51.6765788,46.9580292 52.025834,47.3075006 L61.1325006,56.4141673 C61.7864654,57.0457876 62.8259753,57.0367546 63.4688649,56.3938649 C64.1117546,55.7509753 64.1207877,54.7114654 63.4891673,54.0575006 L55.7941673,46.3625006 L69.4725006,36.8925006 C69.9831852,36.537498 70.2537162,35.9276788 70.1741673,35.3108339 Z M66.9041673,61.9041673 C67.8246419,61.9041673 68.570834,61.1579752 68.570834,60.2375006 C68.570834,59.317026 67.8246419,58.570834 66.9041673,58.570834 C65.9836927,58.570834 65.2375006,59.317026 65.2375006,60.2375006 C65.2375006,61.1579752 65.9836927,61.9041673 66.9041673,61.9041673 Z" id="Shape-color" fill="#ADB5BD"></path>
    </g>
</svg>

<svg width="80" height="80">
    <title>
        Illustrative Icons/Curseur
    </title>
    <path d="M70.174 35.31a1.667 1.667 0 0 0-1.083-1.352L17.238 15.1a1.667 1.667 0 0 0-2.137 2.137L33.958 69.09a1.667 1.667 0 0 0 2.936.378l9.47-13.678 12.73 12.73a1.667 1.667 0 0 0 2.357-2.357L47.309 52.023a1.667 1.667 0 0 0-2.548.23l-8.772 12.666-16.535-45.465 45.469 16.534-12.667 8.771a1.667 1.667 0 0 0-.23 2.549l9.107 9.106a1.667 1.667 0 0 0 2.356-2.356l-7.695-7.695 13.679-9.47c.51-.356.78-.965.701-1.582zm-3.27 26.594a1.667 1.667 0 1 0 0-3.333 1.667 1.667 0 0 0 0 3.333z" fill="#ADB5BD" fill-rule="evenodd"/>
</svg>
